X: 130077
T: Mighty Mike's 
C: BB
R: reel
Q: 1/8=350
M: 4/4
L: 1/8
K: D
"D"A2 FA dcBA|"Bm"dcBA FB B2|"D"A2 FA dcBd|"F#m"faef "G"dBBd|
"D"A2 FA dcBe|"D"fdec "G"dBBd|"D"AdcB AFEF|"A7"AFGE "D"FD D2 :|
"A"eA (3cBA eA (3cBA|"Bm"FABc "G"dcde|"D"fa (3a^ga "Em"b=gge|\
"F#m"faef "G"dBBd|
"A"eA (3cBA eA (3cBA|"Bm7"FABc "G"dcde|"Bm"fBBc "D"dcBd|\
"A7"AFGE "D"FD D2 :|
